; generated by PrusaSlicer 2.5.0 on 2023-02-07 at 00:42:49 UTC


;
;
; 

; external perimeters extrusion width = 0.65mm
; perimeters extrusion width = 0.65mm
; infill extrusion width = 0.65mm
; solid infill extrusion width = 0.65mm
; top infill extrusion width = 0.60mm
; first layer extrusion width = 0.65mm

M73 P0 R24
M73 Q0 S24
M201 X1000 Y1000 Z200 E5000 ; sets maximum accelerations, mm/sec^2
M203 X200 Y200 Z12 E120 ; sets maximum feedrates, mm / sec
M204 P1250 R1250 T1250 ; sets acceleration (P, T) and retract acceleration (R), mm/sec^2
M205 X8.00 Y8.00 Z0.40 E4.50 ; sets the jerk limits, mm/sec
M205 S0 T0 ; sets the minimum extruding and travel feed rate, mm/sec
M107
;TYPE:Custom
M862.3 P "MK3S" ; printer model check
M862.1 P0.6 ; nozzle diameter check
M115 U3.11.0 ; tell printer latest fw version
G90 ; use absolute coordinates
M83 ; extruder relative mode
M104 S230 ; set extruder temp
M140 S85 ; set bed temp
M190 S85 ; wait for bed temp
M109 S230 ; wait for extruder temp
G28 W ; home all without mesh bed level
G80 ; mesh bed leveling

G1 Z0.2 F720
G1 Y-3 F1000 ; go outside print area
G92 E0
G1 X60 E9 F1000 ; intro line
G1 X100 E12.5 F1000 ; intro line

G92 E0
M221 S95
G21 ; set units to millimeters
G90 ; use absolute coordinates
M83 ; use relative distances for extrusion
M900 K0.04 ; Filament gcode LA 1.5
M900 K24 ; Filament gcode LA 1.0
M107
;LAYER_CHANGE
;Z:0.2
;HEIGHT:0.2
;BEFORE_LAYER_CHANGE
G92 E0.0
;0.2


G1 E-1 F2100
G1 Z.4 F720
;AFTER_LAYER_CHANGE
;0.2
; printing object Pattern_Weight_top id:0 copy 0
G1 X98.383 Y102.191 F10800
G1 Z.2 F720
G1 E1 F1500
M204 S800
;TYPE:Perimeter
;WIDTH:0.649999
G1 F1200
G1 X98.516 Y101.086 E.05507
G1 X98.812 Y99.434 E.08305
G1 X99.191 Y97.879 E.07916
G1 X99.663 Y96.349 E.07923
G1 X100.226 Y94.849 E.07923
G1 X100.877 Y93.386 E.07922
G1 X101.615 Y91.965 E.07923
G1 X102.436 Y90.59 E.07923
G1 X103.338 Y89.267 E.07923
G1 X104.318 Y88 E.07923
G1 X105.372 Y86.794 E.07923
G1 X106.496 Y85.653 E.07923
G1 X107.686 Y84.581 E.07923
G1 X108.938 Y83.583 E.07923
G1 X110.248 Y82.661 E.07923
G1 X111.61 Y81.819 E.07923
G1 X113.02 Y81.06 E.07923
G1 X114.474 Y80.387 E.07923
G1 X115.964 Y79.802 E.07923
G1 X117.487 Y79.307 E.07922
G1 X119.037 Y78.904 E.07923
G1 X120.609 Y78.594 E.07922
G1 X122.196 Y78.379 E.07923
G1 X123.793 Y78.26 E.07922
G1 X125.394 Y78.236 E.07923
G1 X126.994 Y78.307 E.07922
G1 X128.587 Y78.475 E.07923
G1 X130.167 Y78.737 E.07922
G1 X131.728 Y79.094 E.07923
G1 X133.265 Y79.543 E.07923
G1 X134.773 Y80.083 E.07923
G1 X136.246 Y80.712 E.07923
G1 X137.678 Y81.429 E.07923
G1 X139.065 Y82.229 E.07922
G1 X140.402 Y83.112 E.07923
G1 X141.683 Y84.072 E.07923
G1 X142.905 Y85.108 E.07923
G1 X144.062 Y86.215 E.07923
G1 X145.152 Y87.389 E.07922
G1 X146.169 Y88.626 E.07922
G1 X147.11 Y89.921 E.07923
G1 X147.972 Y91.271 E.07922
G1 X148.752 Y92.67 E.07923
G1 X149.447 Y94.113 E.07922
G1 X150.054 Y95.595 E.07923
G1 X150.547 Y97.038 E.07545
G1 X150.998 Y98.655 E.08305
G1 X151.331 Y100.221 E.07917
G1 X151.57 Y101.804 E.07922
G1 X151.713 Y103.399 E.07923
G1 X151.761 Y105 E.07922
G1 X151.713 Y106.601 E.07922
G1 X151.57 Y108.196 E.07923
G1 X151.331 Y109.779 E.07922
G1 X150.998 Y111.346 E.07923
G1 X150.572 Y112.89 E.07923
G1 X150.054 Y114.405 E.07922
G1 X149.447 Y115.887 E.07923
G1 X148.752 Y117.33 E.07922
G1 X147.972 Y118.729 E.07923
G1 X147.11 Y120.079 E.07922
G1 X146.169 Y121.374 E.07923
G1 X145.152 Y122.611 E.07922
G1 X144.062 Y123.785 E.07922
G1 X142.905 Y124.892 E.07923
G1 X141.683 Y125.928 E.07923
G1 X140.402 Y126.888 E.07923
G1 X139.065 Y127.771 E.07923
G1 X137.678 Y128.571 E.07922
G1 X136.246 Y129.288 E.07923
G1 X134.773 Y129.917 E.07923
G1 X133.265 Y130.457 E.07923
G1 X131.728 Y130.906 E.07923
G1 X130.167 Y131.263 E.07923
G1 X128.587 Y131.525 E.07922
G1 X126.994 Y131.693 E.07923
G1 X125.394 Y131.764 E.07922
G1 X123.793 Y131.74 E.07923
G1 X122.196 Y131.621 E.07922
G1 X120.609 Y131.406 E.07923
G1 X119.037 Y131.096 E.07922
G1 X117.487 Y130.693 E.07923
G1 X115.964 Y130.198 E.07922
G1 X114.474 Y129.613 E.07923
G1 X113.02 Y128.94 E.07923
G1 X111.61 Y128.181 E.07922
G1 X110.248 Y127.339 E.07923
G1 X109 Y126.461 E.07545
G1 X107.685 Y125.418 E.08305
G1 X106.496 Y124.347 E.07916
M73 Q1 S24
G1 X105.372 Y123.206 E.07923
G1 X104.318 Y122 E.07923
G1 X103.338 Y120.733 E.07923
G1 X102.436 Y119.41 E.07923
G1 X101.615 Y118.035 E.07923
M73 P1 R24
G1 X100.877 Y116.614 E.07923
G1 X100.226 Y115.151 E.07923
G1 X99.69 Y113.723 E.07545
G1 X99.191 Y112.12 E.08305
G1 X98.811 Y110.565 E.07916
G1 X98.525 Y108.989 E.07923
G1 X98.334 Y107.399 E.07922
G1 X98.238 Y105.801 E.07923
G1 X98.238 Y104.199 E.07922
G1 X98.334 Y102.601 E.07923
G1 X98.373 Y102.281 E.01593
M204 S1000
G1 X97.781 Y102.119 F10800
M204 S800
;TYPE:External perimeter
G1 F1200
G1 X97.916 Y100.996 E.05593
G1 X98.217 Y99.308 E.08485
G1 X98.605 Y97.717 E.081
G1 X99.088 Y96.152 E.08102
G1 X99.664 Y94.619 E.08102
G1 X100.33 Y93.123 E.08102
G1 X101.084 Y91.669 E.08102
G1 X101.924 Y90.263 E.08102
G1 X102.847 Y88.91 E.08102
G1 X103.849 Y87.614 E.08102
G1 X104.927 Y86.38 E.08102
G1 X106.076 Y85.214 E.08102
G1 X107.293 Y84.118 E.08102
G1 X108.574 Y83.097 E.08102
G1 X109.913 Y82.154 E.08102
G1 X111.306 Y81.293 E.08102
G1 X112.749 Y80.517 E.08102
G1 X114.235 Y79.828 E.08102
G1 X115.759 Y79.23 E.08102
G1 X117.317 Y78.724 E.08102
G1 X118.902 Y78.312 E.08103
G1 X120.509 Y77.995 E.08102
G1 X122.132 Y77.775 E.08103
G1 X123.766 Y77.653 E.08102
G1 X125.403 Y77.628 E.08103
G1 X127.039 Y77.702 E.08102
G1 X128.668 Y77.873 E.08102
G1 X130.284 Y78.141 E.08102
G1 X131.881 Y78.506 E.08103
G1 X133.453 Y78.965 E.08102
G1 X134.995 Y79.518 E.08102
G1 X136.501 Y80.161 E.08102
G1 X137.966 Y80.894 E.08102
G1 X139.384 Y81.713 E.08102
G1 X140.751 Y82.615 E.08102
G1 X142.062 Y83.598 E.08102
G1 X143.311 Y84.657 E.08102
G1 X144.495 Y85.788 E.08102
G1 X145.609 Y86.989 E.08102
G1 X146.649 Y88.254 E.08102
G1 X147.612 Y89.579 E.08103
G1 X148.494 Y90.959 E.08102
G1 X149.291 Y92.39 E.08103
G1 X150.002 Y93.866 E.08102
G1 X150.623 Y95.381 E.08102
G1 X151.127 Y96.858 E.07721
G1 X151.588 Y98.51 E.08485
G1 X151.929 Y100.112 E.081
G1 X152.173 Y101.732 E.08102
G1 X152.32 Y103.363 E.08103
G1 X152.369 Y105 E.08102
G1 X152.32 Y106.637 E.08102
G1 X152.173 Y108.268 E.08103
G1 X151.929 Y109.888 E.08102
G1 X151.588 Y111.49 E.08102
G1 X151.152 Y113.069 E.08103
G1 X150.623 Y114.619 E.08102
G1 X150.002 Y116.134 E.08102
G1 X149.291 Y117.61 E.08102
G1 X148.494 Y119.041 E.08103
G1 X147.612 Y120.421 E.08102
G1 X146.649 Y121.746 E.08103
G1 X145.609 Y123.011 E.08102
G1 X144.495 Y124.212 E.08102
G1 X143.311 Y125.343 E.08102
G1 X142.062 Y126.402 E.08102
G1 X140.751 Y127.385 E.08102
G1 X139.384 Y128.287 E.08102
G1 X137.966 Y129.106 E.08102
G1 X136.501 Y129.839 E.08102
G1 X134.995 Y130.482 E.08102
G1 X133.453 Y131.035 E.08102
G1 X131.881 Y131.494 E.08102
G1 X130.284 Y131.859 E.08103
G1 X128.668 Y132.127 E.08102
G1 X127.039 Y132.298 E.08103
G1 X125.403 Y132.372 E.08102
G1 X123.766 Y132.347 E.08103
G1 X122.132 Y132.225 E.08102
G1 X120.509 Y132.005 E.08103
G1 X118.902 Y131.688 E.08102
G1 X117.317 Y131.276 E.08103
G1 X115.759 Y130.77 E.08102
G1 X114.235 Y130.172 E.08102
G1 X112.749 Y129.483 E.08102
G1 X111.306 Y128.707 E.08102
G1 X109.913 Y127.846 E.08102
G1 X108.637 Y126.948 E.07721
G1 X107.293 Y125.882 E.08485
G1 X106.076 Y124.786 E.081
G1 X104.927 Y123.62 E.08102
G1 X103.849 Y122.386 E.08102
G1 X102.847 Y121.09 E.08102
G1 X101.924 Y119.737 E.08102
G1 X101.084 Y118.331 E.08102
G1 X100.33 Y116.877 E.08102
G1 X99.664 Y115.381 E.08102
G1 X99.115 Y113.92 E.07721
G1 X98.605 Y112.282 E.08485
G1 X98.217 Y110.692 E.081
G1 X97.925 Y109.08 E.08102
G1 X97.729 Y107.454 E.08102
G1 X97.631 Y105.819 E.08103
G1 X97.631 Y104.181 E.08102
G1 X97.729 Y102.546 E.08102
G1 X97.77 Y102.208 E.01683
M204 S1000
G1 X98.328 Y101.874 F10800
;WIPE_START
G1 F8640
G1 X97.916 Y100.996 E-.28183
G1 X98.217 Y99.308 E-.39604
G1 X98.497 Y98.163 E-.27213
;WIPE_END
G1 E-.05 F2100
G1 Z.6 F720
G1 X124.26 Y109.34 F10800
G1 Z.2 F720
M73 P1 R23
G1 E1 F1500
M204 S800
;TYPE:Perimeter
G1 F1200
G1 X123.562 Y109.166 E.03557
G1 X122.86 Y108.854 E.03799
G1 X122.223 Y108.425 E.03799
G1 X121.671 Y107.892 E.03799
G1 X121.219 Y107.271 E.03799
G1 X120.882 Y106.581 E.03799
G1 X120.67 Y105.843 E.03799
G1 X120.589 Y105.079 E.03799
G1 X120.619 Y104.578 E.02483
G1 X120.67 Y104.157 E.02099
G1 X120.828 Y103.568 E.03016
G1 X121.093 Y102.967 E.03251
G1 X121.219 Y102.729 E.01331
G1 X121.569 Y102.23 E.03016
G1 X122.102 Y101.677 E.03799
G1 X122.723 Y101.225 E.03799
G1 X123.413 Y100.888 E.03799
G1 X124.151 Y100.676 E.03799
G1 X124.89 Y100.598 E.03677
G1 X125.674 Y100.648 E.03888
G1 X126.426 Y100.834 E.03829
G1 X127.127 Y101.146 E.03799
G1 X127.546 Y101.422 E.02483
G1 X127.886 Y101.677 E.02099
G1 X128.317 Y102.108 E.03016
G1 X128.705 Y102.638 E.03252
G1 X128.848 Y102.867 E.01331
G1 X129.105 Y103.419 E.03016
G1 X129.318 Y104.157 E.03799
G1 X129.398 Y104.921 E.03799
G1 X129.345 Y105.687 E.03799
G1 X129.16 Y106.432 E.03799
G1 X128.848 Y107.134 E.03799
G1 X128.419 Y107.77 E.03799
G1 X127.886 Y108.323 E.03799
G1 X127.265 Y108.775 E.03799
G1 X126.816 Y108.999 E.02483
G1 X126.426 Y109.166 E.02099
G1 X125.837 Y109.324 E.03016
G1 X125.183 Y109.395 E.03252
G1 X124.914 Y109.404 E.01331
G1 X124.348 Y109.355 E.02813
M204 S1000
;WIPE_START
G1 F8640
G1 X123.562 Y109.166 E-.18668
G1 X122.86 Y108.854 E-.17731
G1 X122.223 Y108.425 E-.1773
G1 X121.671 Y107.892 E-.1773
G1 X121.219 Y107.271 E-.1773
G1 X121.116 Y107.06 E-.05411
;WIPE_END
G1 E-.05 F2100
G1 Z.6 F720
G1 X125.399 Y108.764 F10800
G1 Z.2 F720
G1 E1 F1500
M204 S800
;TYPE:External perimeter
G1 F1200
G1 X125.13 Y108.79 E.01336
G1 X124.393 Y108.749 E.03654
G1 X123.719 Y108.58 E.03437
G1 X123.117 Y108.304 E.03277
G1 X122.572 Y107.928 E.03277
G1 X122.1 Y107.463 E.03277
G1 X121.716 Y106.923 E.03277
G1 X121.432 Y106.324 E.03277
G1 X121.256 Y105.686 E.03277
G1 X121.194 Y105.026 E.03276
G1 X121.247 Y104.366 E.03277
G1 X121.414 Y103.725 E.03277
G1 X121.643 Y103.223 E.02729
G1 X122.047 Y102.605 E.03654
G1 X122.531 Y102.106 E.03437
G1 X123.071 Y101.723 E.03277
G1 X123.669 Y101.439 E.03277
M73 Q1 S23
G1 X124.308 Y101.263 E.03277
G1 X124.943 Y101.202 E.03155
G1 X125.625 Y101.253 E.03386
G1 X126.268 Y101.42 E.03287
G1 X126.871 Y101.696 E.03277
G1 X127.416 Y102.072 E.03277
G1 X127.887 Y102.537 E.03277
G1 X128.208 Y102.987 E.0273
G1 X128.541 Y103.646 E.03654
G1 X128.731 Y104.314 E.03437
G1 X128.793 Y104.974 E.03277
G1 X128.74 Y105.634 E.03277
G1 X128.573 Y106.275 E.03277
G1 X128.298 Y106.877 E.03277
G1 X127.921 Y107.422 E.03277
G1 X127.456 Y107.894 E.03277
G1 X126.917 Y108.277 E.03277
G1 X126.318 Y108.561 E.03277
G1 X125.68 Y108.737 E.03277
G1 X125.489 Y108.756 E.00949
M204 S1000
G1 X125.297 Y109.014 F10800
;WIPE_START
G1 F8640
G1 X125.13 Y108.79 E-.08313
G1 X124.393 Y108.749 E-.17054
G1 X123.719 Y108.58 E-.16044
G1 X123.117 Y108.304 E-.15294
G1 X122.572 Y107.928 E-.15294
G1 X122.1 Y107.463 E-.15294
G1 X121.907 Y107.191 E-.07707
;WIPE_END
G1 E-.05 F2100
G1 Z.6 F720
G1 X121.585 Y108.447 F10800
G1 Z.2 F720
G1 E1 F1500
M204 S800
;TYPE:Solid infill
;WIDTH:0.65
G1 F1200
G1 X121.418 Y108.277 E.0118
M204 S1000
G1 X121.213 Y108.05 F10800
M204 S800
G1 F1200
G1 X120.836 Y107.544 E.03118
G1 X120.569 Y107.07 E.02695
G1 X120.356 Y106.568 E.02698
G1 X120.2 Y106.044 E.02701
G1 X120.104 Y105.506 E.02704
G1 X120.067 Y104.961 E.02707
G1 X120.091 Y104.413 E.0271
G1 X120.175 Y103.872 E.02713
G1 X120.32 Y103.342 E.02716
G1 X120.522 Y102.831 E.02718
G1 X120.779 Y102.345 E.02721
G1 X121.089 Y101.889 E.02724
G1 X121.447 Y101.47 E.02727
G1 X121.85 Y101.093 E.0273
G1 X122.292 Y100.762 E.02733
G1 X122.768 Y100.481 E.02736
G1 X123.273 Y100.254 E.02739
G1 X123.8 Y100.083 E.02742
G1 X124.344 Y99.971 E.02744
M73 Q2 S23
G1 X124.897 Y99.919 E.02747
G1 X125.453 Y99.927 E.0275
G1 X126.005 Y99.996 E.02753
G1 X126.547 Y100.126 E.02756
G1 X127.072 Y100.313 E.02759
G1 X127.574 Y100.557 E.02762
G1 X128.047 Y100.854 E.02764
G1 X128.486 Y101.201 E.02767
G1 X128.885 Y101.594 E.0277
G1 X129.239 Y102.028 E.02773
G1 X129.545 Y102.499 E.02776
G1 X129.798 Y103 E.02778
G1 X129.996 Y103.526 E.02781
G1 X130.136 Y104.072 E.02784
M73 P2 R23
G1 X130.216 Y104.629 E.02787
G1 X130.236 Y105.193 E.02789
G1 X130.195 Y105.756 E.02792
G1 X130.094 Y106.311 E.02795
G1 X129.934 Y106.854 E.02798
G1 X129.716 Y107.376 E.02801
G1 X129.444 Y107.873 E.02803
G1 X129.119 Y108.338 E.02806
G1 X128.746 Y108.766 E.02809
G1 X128.329 Y109.153 E.02811
G1 X127.873 Y109.493 E.02814
G1 X127.383 Y109.782 E.02817
G1 X126.864 Y110.018 E.0282
G1 X126.323 Y110.198 E.02822
G1 X125.764 Y110.319 E.02825
G1 X125.196 Y110.381 E.02828
G1 X124.624 Y110.381 E.0283
G1 X124.054 Y110.321 E.02833
G1 X123.494 Y110.201 E.02836
G1 X122.949 Y110.023 E.02838
G1 X122.425 Y109.787 E.02841
G1 X121.929 Y109.497 E.02844
G1 X121.465 Y109.156 E.02846
G1 X121.04 Y108.768 E.02849
G1 X120.657 Y108.336 E.02852
G1 X120.322 Y107.867 E.02854
G1 X120.038 Y107.364 E.02857
G1 X119.807 Y106.834 E.0286
G1 X119.634 Y106.282 E.02862
G1 X119.519 Y105.714 E.02865
G1 X119.464 Y105.137 E.02868
G1 X119.47 Y104.557 E.0287
G1 X119.537 Y103.98 E.02873
G1 X119.664 Y103.413 E.02875
G1 X119.849 Y102.861 E.02878
G1 X120.091 Y102.331 E.02881
G1 X120.387 Y101.829 E.02883
G1 X120.734 Y101.36 E.02886
G1 X121.128 Y100.93 E.02888
G1 X121.565 Y100.542 E.02891
G1 X122.041 Y100.201 E.02894
G1 X122.549 Y99.911 E.02896
G1 X123.086 Y99.676 E.02899
G1 X123.644 Y99.497 E.02901
G1 X124.219 Y99.376 E.02904
G1 X124.803 Y99.315 E.02906
G1 X125.391 Y99.315 E.02909
G1 X125.977 Y99.376 E.02912
G1 X126.553 Y99.497 E.02914
G1 X127.115 Y99.677 E.02917
G1 X127.655 Y99.913 E.02919
G1 X128.169 Y100.205 E.02922
G1 X128.65 Y100.547 E.02924
G1 X129.095 Y100.938 E.02927
G1 X129.497 Y101.373 E.02929
G1 X129.853 Y101.847 E.02932
G1 X130.159 Y102.355 E.02934
G1 X130.411 Y102.892 E.02937
G1 X130.608 Y103.453 E.02939
G1 X130.746 Y104.031 E.02942
G1 X130.825 Y104.621 E.02944
G1 X130.843 Y105.216 E.02947
G1 X130.8 Y105.811 E.02949
G1 X130.697 Y106.399 E.02952
G1 X130.535 Y106.973 E.02954
G1 X130.315 Y107.529 E.02957
G1 X130.04 Y108.06 E.02959
G1 X129.711 Y108.561 E.02961
G1 X129.334 Y109.026 E.02964
G1 X128.911 Y109.451 E.02966
G1 X128.447 Y109.832 E.02969
G1 X127.946 Y110.163 E.02971
G1 X127.414 Y110.443 E.02974
G1 X126.856 Y110.668 E.02976
G1 X126.278 Y110.836 E.02979
G1 X125.685 Y110.944 E.02981
G1 X125.084 Y110.993 E.02983
G1 X124.48 Y110.981 E.02986
G1 X123.881 Y110.908 E.02988
G1 X123.291 Y110.775 E.02991
G1 X122.717 Y110.584 E.02993
G1 X122.165 Y110.336 E.02996
G1 X121.64 Y110.033 E.02998
G1 X121.147 Y109.679 E.03
G1 X120.692 Y109.278 E.03003
G1 X120.279 Y108.832 E.03005
G1 X119.912 Y108.347 E.03007
G1 X119.595 Y107.828 E.0301
G1 X119.331 Y107.279 E.03012
G1 X119.123 Y106.706 E.03015
G1 X118.973 Y106.115 E.03017
G1 X118.883 Y105.512 E.03019
G1 X118.853 Y104.902 E.03022
G1 X118.883 Y104.291 E.03024
G1 X118.974 Y103.686 E.03026
G1 X119.125 Y103.093 E.03029
G1 X119.334 Y102.517 E.03031
G1 X119.599 Y101.964 E.03033
G1 X119.917 Y101.439 E.03036
G1 X120.287 Y100.949 E.03038
G1 X120.703 Y100.496 E.0304
G1 X121.162 Y100.087 E.03043
G1 X121.66 Y99.725 E.03045
G1 X122.191 Y99.413 E.03047
G1 X122.751 Y99.155 E.0305
G1 X123.334 Y98.953 E.03052
G1 X123.934 Y98.809 E.03054
G1 X124.546 Y98.725 E.03057
G1 X125.164 Y98.701 E.03059
G1 X125.782 Y98.738 E.03061
G1 X126.394 Y98.836 E.03064
G1 X126.993 Y98.993 E.03066
G1 X127.575 Y99.208 E.03068
G1 X128.133 Y99.479 E.0307
G1 X128.663 Y99.803 E.03073
G1 X129.159 Y100.178 E.03075
G1 X129.616 Y100.6 E.03077
G1 X130.03 Y101.065 E.0308
G1 X130.397 Y101.569 E.03082
G1 X130.714 Y102.106 E.03084
G1 X130.977 Y102.671 E.03086
G1 X131.184 Y103.26 E.03089
G1 X131.333 Y103.867 E.03091
G1 X131.422 Y104.486 E.03093
G1 X131.451 Y105.111 E.03095
G1 X131.419 Y105.736 E.03098
G1 X131.327 Y106.356 E.031
G1 X131.175 Y106.965 E.03102
G1 X130.965 Y107.556 E.03104
G1 X130.698 Y108.125 E.03107
G1 X130.378 Y108.665 E.03109
G1 X130.006 Y109.173 E.03111
G1 X129.587 Y109.642 E.03113
G1 X129.125 Y110.07 E.03116
G1 X128.623 Y110.451 E.03118
G1 X128.086 Y110.782 E.0312
G1 X127.52 Y111.061 E.03122
